X: 740
T: Áille's Arabesque
R: slip jig
M: 9/8
K: Gmajor
d|"Gmaj7"BAG GF/E/D "Cmaj7"~E3|D2B DE/F/G "DaddG"A2d|"Gmaj7"BAG GB/c/d "Cmaj7"edg|edB BAG "DaddG"A2d|
"Gmaj7"BAG GF/E/D "C/G"~E3|D2B DE/F/G "D"A2d|"Gmaj7"BAG GB/c/d "Cmaj7"edg|M:6/8 edB Bcd||
M:9/8 "C"e2a age dBA|"G"~B3 G2A Bcd|"Am7"e2a age g2b|"G/B"age dBA Bcd|
"C"~e3 age dBA|"G"~B3 G2A Bcd|"Am7"e2a age g2b|M:6/8 "G/B" age dBA|"C"B2G "D"A2||

